outputs/icons/action/open_in_full_round.svg

<svg xmlns="http://www.w3.org/2000/svg" width="1200" height="1200" fill="none"><g clip-path="url(#a)"><path fill="#000" d="M1050 429.5V200c0-27.5-22.5-50-50-50H770.5c-44.5 0-67 54-35.5 85.5l79.5 79.5-500 500-79.5-79.5c-31-31.5-85-9.5-85 35V1000c0 27.5 22.5 50 50 50h229.5c44.5 0 67-54 35.5-85.5L385.5 885l500-500 79.5 79.5c31 31.5 85 9.5 85-35"/></g><defs><clipPath id="a"><path fill="#fff" d="M0 0h1200v1200H0z"/></clipPath></defs></svg>

<svg width="1200" height="1200" viewBox="0 0 1200 1200" fill="none" xmlns="http://www.w3.org/2000/svg"><g clip-path="url(#clip0_223_1920)"><path d="M1050 429.5V200C1050 172.5 1027.5 150 1000 150H770.5C726 150 703.5 204 735 235.5L814.5 315L314.5 815L235 735.5C204 704 150 726 150 770.5V1000C150 1027.5 172.5 1050 200 1050H429.5C474 1050 496.5 996 465 964.5L385.5 885L885.5 385L965 464.5C996 496 1050 474 1050 429.5Z" fill="#1D1E23"/></g><defs><clipPath id="clip0_223_1920"><path width="24" fill="white" d="M0 0H1200V1200H0V0z"/></clipPath></defs></svg>
